<?xml version="1.0" encoding="UTF-8"?>
<map version="1.10" tiledversion="1.12.2" orientation="orthogonal" renderorder="right-down" width="16" height="16" tilewidth="16" tileheight="16" infinite="0" nextlayerid="5" nextobjectid="11">
 <tileset firstgid="1" source="../16x16.tsx"/>
 <layer id="1" name="BASE" width="16" height="16">
  <data encoding="csv">
25,25,25,25,25,25,25,25,25,25,25,25,25,25,25,25,
25,25,25,25,25,25,25,25,25,25,25,25,25,25,25,25,
25,25,25,25,25,25,25,25,25,25,25,25,25,25,25,25,
25,25,25,25,25,25,25,25,25,25,25,25,25,25,25,25,
25,25,25,25,25,25,25,25,25,25,25,25,25,25,25,25,
25,25,25,25,25,25,25,25,25,25,25,25,25,25,25,25,
25,25,25,25,25,25,25,25,25,25,25,25,25,25,25,25,
25,25,25,25,25,25,25,25,25,25,25,25,25,25,25,25,
25,25,25,25,25,25,25,25,25,25,25,25,25,25,25,25,
25,25,25,25,25,25,25,25,25,25,25,25,25,25,25,25,
25,25,25,25,25,25,25,25,25,25,25,25,25,25,25,25,
25,25,25,25,25,25,25,25,25,25,25,25,25,25,25,25,
25,25,25,25,25,25,25,25,25,25,25,25,25,25,25,25,
25,25,25,25,25,25,25,25,25,25,25,25,25,25,25,25,
25,25,25,25,25,25,25,25,25,25,25,25,25,25,25,25,
25,25,25,25,25,25,25,25,25,25,25,25,25,25,25,25
</data>
 </layer>
 <layer id="2" name="UNPLACEABLE" width="16" height="16">
  <data encoding="csv">
104,105,0,0,0,0,0,20,30,94,94,225,225,94,94,94,
94,0,0,0,0,0,94,94,30,94,0,0,0,0,0,179,
94,0,0,0,0,94,94,30,30,94,94,0,0,0,0,179,
94,0,0,0,94,94,30,30,30,30,94,94,0,0,0,179,
94,0,0,94,94,30,30,0,0,30,30,94,94,0,0,179,
94,0,0,179,30,30,30,0,0,30,30,30,94,0,0,179,
94,0,0,179,94,94,30,30,30,30,94,94,94,0,0,94,
94,0,0,0,0,179,30,142,143,30,179,0,0,0,0,94,
94,0,0,0,0,179,30,165,166,30,179,0,0,0,0,94,
94,0,0,94,94,94,30,30,30,30,94,94,179,0,0,94,
179,0,0,94,30,30,30,0,0,30,30,30,179,0,0,94,
179,0,0,94,94,30,30,0,0,30,30,94,94,0,0,94,
179,0,0,0,94,94,30,30,30,30,94,94,0,0,0,94,
179,0,0,0,0,94,94,30,30,94,94,0,0,0,0,94,
179,0,0,0,0,0,94,30,94,94,0,0,0,0,0,94,
94,94,94,225,225,94,94,30,20,0,0,0,0,0,103,104
</data>
 </layer>
 <objectgroup id="3" name="path">
  <object id="1" x="112" y="16">
   <polyline points="0,0 -16,0 -16,16 -32,16 -32,32 -48,32 -48,48 -64,48 -64,80 -32,80 -32,128 -64,128 -64,160 -48,160 -48,176 -32,176 -32,192 -16,192 -16,224 -112,224 -112,0"/>
  </object>
  <object id="2" x="128" y="224">
   <polyline points="0,0 16,0 16,-16 32,-16 32,-32 48,-32 48,-48 64,-48 64,-80 32,-80 32,-128 64,-128 64,-160 48,-160 48,-176 32,-176 32,-192 16,-192 16,-224 112,-224 112,0"/>
  </object>
 </objectgroup>
 <objectgroup id="4" name="tunnel">
  <object id="3" x="48" y="80">
   <polyline points="0,0 0,16"/>
  </object>
  <object id="4" x="80" y="112">
   <polyline points="0,0 0,16"/>
  </object>
  <object id="5" x="64" y="240">
   <polyline points="0,0 -16,0"/>
  </object>
  <object id="6" x="0" y="224">
   <polyline points="0,0 0,-64"/>
  </object>
  <object id="7" x="192" y="160">
   <polyline points="0,0 0,-16"/>
  </object>
  <object id="8" x="160" y="128">
   <polyline points="0,0 0,-16"/>
  </object>
  <object id="9" x="176" y="0">
   <polyline points="0,0 16,0"/>
  </object>
  <object id="10" x="240" y="16">
   <polyline points="0,0 0,64"/>
  </object>
 </objectgroup>
</map>
