<?xml version="1.0" encoding="UTF-8"?>
<map version="1.10" tiledversion="1.12.2" orientation="orthogonal" renderorder="right-down" width="16" height="16" tilewidth="16" tileheight="16" infinite="0" nextlayerid="5" nextobjectid="13">
 <tileset firstgid="1" source="../16x16.tsx"/>
 <layer id="1" name="BASE" width="16" height="16">
  <data encoding="csv">
25,25,25,25,25,25,25,25,25,25,25,25,25,25,25,25,
25,25,25,25,25,25,25,25,25,25,25,25,25,25,25,25,
25,25,25,25,25,25,25,25,25,25,25,25,25,25,25,25,
25,25,25,25,25,25,25,25,25,25,25,25,25,25,25,25,
25,25,25,25,25,25,25,25,25,25,25,25,25,25,25,25,
25,25,25,25,25,25,25,25,25,25,25,25,25,25,25,25,
25,25,25,25,25,25,25,25,25,25,25,25,25,25,25,25,
25,25,25,25,25,25,25,25,25,25,25,25,25,25,25,25,
25,25,25,25,25,25,25,25,25,25,25,25,25,25,25,25,
25,25,25,25,25,25,25,25,25,25,25,25,25,25,25,25,
25,25,25,25,25,25,25,25,25,25,25,25,25,25,25,25,
25,25,25,25,25,25,25,25,25,25,25,25,25,25,25,25,
25,25,25,25,25,25,25,25,25,25,25,25,25,25,25,25,
25,25,25,25,25,25,25,25,25,25,25,25,25,25,25,25,
25,25,25,25,25,25,25,25,25,25,25,25,25,25,25,25,
25,25,25,25,25,25,25,25,25,25,25,25,25,25,25,25
</data>
 </layer>
 <layer id="2" name="UNPLACEABLE" width="16" height="16">
  <data encoding="csv">
99,99,99,99,99,99,99,99,99,99,99,99,94,0,0,99,
99,0,0,0,0,0,0,0,0,0,0,0,94,0,0,99,
99,0,0,94,94,225,225,225,225,94,94,94,94,0,0,99,
99,0,0,179,0,0,0,0,0,0,94,0,0,0,0,99,
80,81,0,179,0,99,99,99,99,0,94,0,0,99,0,99,
103,104,94,94,0,99,99,99,99,0,94,94,0,99,0,99,
126,127,0,0,0,99,0,0,0,0,0,179,0,99,0,99,
0,0,0,99,99,99,0,142,143,0,0,179,0,0,0,99,
0,99,99,99,99,99,0,165,166,0,0,179,0,94,94,94,
0,99,0,0,0,0,0,0,0,0,0,94,0,94,0,94,
0,99,0,94,94,94,225,225,94,94,94,94,0,94,0,94,
0,99,0,179,0,0,0,0,0,0,0,0,0,179,0,94,
0,99,0,179,0,0,0,0,0,0,0,0,0,179,0,94,
0,99,0,94,94,94,94,94,94,94,225,225,94,94,0,94,
0,0,0,0,94,0,80,81,0,0,0,0,0,0,0,94,
99,99,99,99,94,99,103,104,94,94,94,94,94,94,94,94
</data>
 </layer>
 <objectgroup id="3" name="path">
  <object id="2" x="192" y="0">
   <polyline points="0,0 0,32 -32,32 -32,80 -16,80 -16,160 -144,160 -144,208 16,208 16,128 48,128 48,240 -64,240"/>
  </object>
  <object id="5" x="64" y="240">
   <polyline points="0,0 0,-32 -16,-32 -16,-80 112,-80 112,-160 96,-160 96,-208 -16,-208 -16,-160 -32,-160"/>
  </object>
 </objectgroup>
 <objectgroup id="4" name="tunnel">
  <object id="6" x="48" y="192">
   <polyline points="0,0 0,-16"/>
  </object>
  <object id="7" x="96" y="160">
   <polyline points="0,0 16,0"/>
  </object>
  <object id="8" x="176" y="128">
   <polyline points="0,0 0,-32"/>
  </object>
  <object id="9" x="128" y="32">
   <polyline points="0,0 -48,0"/>
  </object>
  <object id="10" x="160" y="208">
   <polyline points="0,0 16,0"/>
  </object>
  <object id="11" x="208" y="192">
   <polyline points="0,0 0,-16"/>
  </object>
  <object id="12" x="48" y="48">
   <polyline points="0,0 0,16"/>
  </object>
 </objectgroup>
</map>
