<?xml version="1.0" encoding="UTF-8"?>
<map version="1.10" tiledversion="1.12.2" orientation="orthogonal" renderorder="right-down" width="16" height="16" tilewidth="16" tileheight="16" infinite="0" nextlayerid="5" nextobjectid="3">
 <tileset firstgid="1" source="../16x16.tsx"/>
 <layer id="4" name="BASE" width="16" height="16">
  <data encoding="csv">
25,25,25,25,25,25,25,25,25,25,25,25,25,25,25,25,
25,25,25,25,25,25,25,25,25,25,25,25,25,25,25,25,
25,25,25,25,25,25,25,25,25,25,25,25,25,25,25,25,
25,25,25,25,25,25,25,25,25,25,25,25,25,25,25,25,
25,25,25,25,25,25,25,25,25,25,25,25,25,25,25,25,
25,25,25,25,25,25,25,25,25,25,25,25,25,25,25,25,
25,25,25,25,25,25,25,25,25,25,25,25,25,25,25,25,
25,25,25,25,25,25,25,25,25,25,25,25,25,25,25,25,
25,25,25,25,25,25,25,25,25,25,25,25,25,25,25,25,
25,25,25,25,25,25,25,25,25,25,25,25,25,25,25,25,
25,25,25,25,25,25,25,25,25,25,25,25,25,25,25,25,
25,25,25,25,25,25,25,25,25,25,25,25,25,25,25,25,
25,25,25,25,25,25,25,25,25,25,25,25,25,25,25,25,
25,25,25,25,25,25,25,25,25,25,25,25,25,25,25,25,
25,25,25,25,25,25,25,25,25,25,25,25,25,25,25,25,
25,25,25,25,25,25,25,25,25,25,25,25,25,25,25,25
</data>
 </layer>
 <layer id="1" name="UNPLACEABLE" width="16" height="16">
  <data encoding="csv">
99,99,99,99,99,99,99,99,99,99,99,99,99,99,99,99,
0,0,0,0,0,0,0,0,0,0,0,0,0,0,0,99,
0,0,0,0,0,0,0,0,0,0,0,0,0,0,0,99,
94,94,94,94,94,94,94,94,94,94,94,94,94,0,0,99,
0,0,0,0,0,0,0,0,0,0,0,0,94,0,0,99,
99,0,0,0,0,0,0,0,0,0,0,0,94,0,0,99,
99,0,0,0,0,0,0,0,0,0,0,0,94,0,0,99,
99,0,0,0,0,0,0,142,143,0,0,0,94,0,0,99,
99,0,0,0,0,0,0,165,166,0,0,0,94,0,0,99,
99,0,0,0,0,0,0,0,0,0,0,0,94,0,0,99,
99,0,0,0,0,0,0,0,0,0,0,0,94,0,0,99,
81,0,0,0,0,0,0,0,0,0,0,0,94,0,0,99,
104,94,94,94,94,94,94,94,94,94,94,94,94,0,0,99,
127,0,0,0,0,0,0,0,0,0,0,0,0,0,0,99,
0,0,0,0,0,0,0,0,0,0,0,0,0,0,0,99,
99,99,99,99,99,99,99,99,99,99,99,99,99,99,99,99
</data>
 </layer>
 <objectgroup id="3" name="path">
  <object id="2" x="0" y="48">
   <polyline points="0,0 192,0 192,144 16,144"/>
  </object>
 </objectgroup>
 <objectgroup id="2" name="tunnel"/>
</map>
