<?xml version="1.0" encoding="UTF-8"?>
<map version="1.10" tiledversion="1.12.2" orientation="orthogonal" renderorder="right-down" width="16" height="16" tilewidth="16" tileheight="16" infinite="0" nextlayerid="5" nextobjectid="19">
 <tileset firstgid="1" source="../16x16.tsx"/>
 <layer id="1" name="BASE" width="16" height="16">
  <data encoding="csv">
25,25,25,25,25,25,25,25,25,25,25,25,25,25,25,25,
25,25,25,25,25,25,25,25,25,25,25,25,25,25,25,25,
25,25,25,25,25,25,25,25,25,25,25,25,25,25,25,25,
25,25,25,25,25,25,25,25,25,25,25,25,25,25,25,25,
25,25,25,25,25,25,25,25,25,25,25,25,25,25,25,25,
25,25,25,25,25,25,25,25,25,25,25,25,25,25,25,25,
25,25,25,25,25,25,25,25,25,25,25,25,25,25,25,25,
25,25,25,25,25,25,25,25,25,25,25,25,25,25,25,25,
25,25,25,25,25,25,25,25,25,25,25,25,25,25,25,25,
25,25,25,25,25,25,25,25,25,25,25,25,25,25,25,25,
25,25,25,25,25,25,25,25,25,25,25,25,25,25,25,25,
25,25,25,25,25,25,25,25,25,25,25,25,25,25,25,25,
25,25,25,25,25,25,25,25,25,25,25,25,25,25,25,25,
25,25,25,25,25,25,25,25,25,25,25,25,25,25,25,25,
25,25,25,25,25,25,25,25,25,25,25,25,25,25,25,25,
25,25,25,25,25,25,25,25,25,25,25,25,25,25,25,25
</data>
 </layer>
 <layer id="2" name="UNPLACEABLE" width="16" height="16">
  <data encoding="csv">
0,0,0,0,0,103,104,105,103,104,105,0,0,0,0,0,
0,0,0,0,0,94,94,225,225,94,94,0,0,0,0,0,
0,0,0,0,0,94,30,30,30,30,94,0,0,0,0,0,
94,225,225,225,94,94,30,30,30,30,94,94,225,225,225,94,
94,30,30,30,30,94,94,94,94,94,94,30,30,30,30,94,
94,30,30,30,30,30,30,30,30,30,30,30,30,30,30,94,
94,30,30,94,94,94,94,30,30,94,94,94,94,30,30,94,
179,30,30,179,0,0,94,142,143,94,0,0,179,30,30,179,
179,30,30,179,0,0,94,165,166,94,0,0,179,30,30,179,
179,30,30,179,0,0,94,30,30,94,0,0,179,30,30,179,
94,0,0,94,0,0,94,30,30,94,0,0,94,0,0,94,
94,0,0,94,0,0,94,30,30,94,0,0,94,0,0,94,
94,30,30,94,0,0,179,30,30,179,0,0,94,30,30,94,
225,225,94,94,0,0,179,30,30,179,0,0,94,94,225,225,
0,0,0,0,0,0,94,30,30,94,0,0,0,0,0,0,
94,94,94,225,225,94,94,94,94,94,94,225,225,94,94,94
</data>
 </layer>
 <objectgroup id="3" name="path">
  <object id="3" x="0" y="240">
   <polyline points="0,0 144,0 144,-144 192,-144 192,-32 240,-32 240,-192 160,-192 160,-176 80,-176 80,-224 144,-224"/>
  </object>
  <object id="4" x="240" y="240">
   <polyline points="0,0 -144,0 -144,-144 -192,-144 -192,-32 -240,-32 -240,-192 -160,-192 -160,-176 -80,-176 -80,-224 -144,-224"/>
  </object>
 </objectgroup>
 <objectgroup id="4" name="tunnel">
  <object id="5" x="48" y="240">
   <polyline points="0,0 16,0"/>
  </object>
  <object id="6" x="144" y="208">
   <polyline points="0,0 0,-16"/>
  </object>
  <object id="7" x="192" y="112">
   <polyline points="0,0 0,32"/>
  </object>
  <object id="8" x="224" y="208">
   <polyline points="0,0 16,0"/>
  </object>
  <object id="9" x="240" y="144">
   <polyline points="0,0 0,-32"/>
  </object>
  <object id="10" x="224" y="48">
   <polyline points="0,0 -32,0"/>
  </object>
  <object id="11" x="112" y="16">
   <polyline points="0,0 16,0"/>
  </object>
  <object id="12" x="192" y="240">
   <polyline points="0,0 -16,0"/>
  </object>
  <object id="13" x="96" y="208">
   <polyline points="0,0 0,-16"/>
  </object>
  <object id="14" x="48" y="112">
   <polyline points="0,0 0,32"/>
  </object>
  <object id="15" x="16" y="208">
   <polyline points="0,0 -16,0"/>
  </object>
  <object id="16" x="0" y="144">
   <polyline points="0,0 0,-32"/>
  </object>
  <object id="17" x="16" y="48">
   <polyline points="0,0 32,0"/>
  </object>
 </objectgroup>
</map>
