<?xml version="1.0" encoding="UTF-8"?>
<map version="1.10" tiledversion="1.12.2" orientation="orthogonal" renderorder="right-down" width="16" height="16" tilewidth="16" tileheight="16" infinite="0" nextlayerid="5" nextobjectid="6">
 <tileset firstgid="1" source="../16x16.tsx"/>
 <layer id="1" name="BASE" width="16" height="16">
  <data encoding="csv">
25,25,25,25,25,25,25,25,25,25,25,25,25,25,25,25,
25,25,25,25,25,25,25,25,25,25,25,25,25,25,25,25,
25,25,25,25,25,25,25,25,25,25,25,25,25,25,25,25,
25,25,25,25,25,25,25,25,25,25,25,25,25,25,25,25,
25,25,25,25,25,25,25,25,25,25,25,25,25,25,25,25,
25,25,25,25,25,25,25,25,25,25,25,25,25,25,25,25,
25,25,25,25,25,25,25,25,25,25,25,25,25,25,25,25,
25,25,25,25,25,25,25,25,25,25,25,25,25,25,25,25,
25,25,25,25,25,25,25,25,25,25,25,25,25,25,25,25,
25,25,25,25,25,25,25,25,25,25,25,25,25,25,25,25,
25,25,25,25,25,25,25,25,25,25,25,25,25,25,25,25,
25,25,25,25,25,25,25,25,25,25,25,25,25,25,25,25,
25,25,25,25,25,25,25,25,25,25,25,25,25,25,25,25,
25,25,25,25,25,25,25,25,25,25,25,25,25,25,25,25,
25,25,25,25,25,25,25,25,25,25,25,25,25,25,25,25,
25,25,25,25,25,25,25,25,25,25,25,25,25,25,25,25
</data>
 </layer>
 <layer id="2" name="UNPLACEABLE" width="16" height="16">
  <data encoding="csv">
99,99,99,0,0,0,0,0,0,0,0,0,0,99,99,99,
99,99,0,0,0,0,0,0,0,0,0,0,0,0,99,99,
99,0,0,0,0,0,0,0,0,0,0,0,0,0,0,99,
0,0,0,20,94,94,94,94,94,94,225,225,94,0,0,0,
0,0,80,81,82,0,0,0,0,0,0,0,94,0,0,0,
0,0,103,104,105,0,0,0,0,0,0,0,94,0,0,0,
0,0,0,94,0,0,0,0,0,0,0,0,179,0,0,0,
0,0,0,179,0,0,0,142,143,0,0,0,179,0,0,0,
0,0,0,179,0,0,0,165,166,0,0,0,179,0,0,0,
0,0,0,179,0,0,0,0,0,0,0,0,94,0,0,0,
0,0,0,179,0,0,0,0,0,0,0,0,94,0,0,0,
0,0,0,179,0,0,0,0,0,0,0,0,94,0,0,0,
0,0,0,94,94,94,94,94,225,225,225,225,94,0,0,0,
99,0,0,0,0,0,0,0,0,0,0,0,0,0,0,99,
99,99,0,0,0,0,0,0,0,0,0,0,0,0,99,99,
99,99,99,0,0,0,0,0,0,0,0,0,0,99,99,99
</data>
 </layer>
 <objectgroup id="3" name="path">
  <object id="1" x="48" y="48">
   <polyline points="16,0 144,0 144,144 0,144 0,48"/>
  </object>
 </objectgroup>
 <objectgroup id="4" name="tunnel">
  <object id="2" x="160" y="48">
   <polyline points="0,0 16,0"/>
  </object>
  <object id="3" x="192" y="96">
   <polyline points="0,0 0,32"/>
  </object>
  <object id="4" x="176" y="192">
   <polyline points="0,0 -48,0"/>
  </object>
  <object id="5" x="48" y="176">
   <polyline points="0,0 0,-64"/>
  </object>
 </objectgroup>
</map>
