<?xml version="1.0" encoding="UTF-8"?>
<map version="1.10" tiledversion="1.12.2" orientation="orthogonal" renderorder="right-down" width="16" height="16" tilewidth="16" tileheight="16" infinite="0" nextlayerid="5" nextobjectid="12">
 <editorsettings>
  <export target="../TMJs/level9.tmj" format="json"/>
 </editorsettings>
 <tileset firstgid="1" source="../16x16.tsx"/>
 <layer id="1" name="BASE" width="16" height="16">
  <data encoding="csv">
25,25,25,25,25,25,25,25,25,25,25,25,25,25,25,25,
25,25,25,25,25,25,25,25,25,25,25,25,25,25,25,25,
25,25,25,25,25,25,25,25,25,25,25,25,25,25,25,25,
25,25,25,25,25,25,25,25,25,25,25,25,25,25,25,25,
25,25,25,25,25,25,25,25,25,25,25,25,25,25,25,25,
25,25,25,25,25,25,25,25,25,25,25,25,25,25,25,25,
25,25,25,25,25,25,25,25,25,25,25,25,25,25,25,25,
25,25,25,25,25,25,25,25,25,25,25,25,25,25,25,25,
25,25,25,25,25,25,25,25,25,25,25,25,25,25,25,25,
25,25,25,25,25,25,25,25,25,25,25,25,25,25,25,25,
25,25,25,25,25,25,25,25,25,25,25,25,25,25,25,25,
25,25,25,25,25,25,25,25,25,25,25,25,25,25,25,25,
25,25,25,25,25,25,25,25,25,25,25,25,25,25,25,25,
25,25,25,25,25,25,25,25,25,25,25,25,25,25,25,25,
25,25,25,25,25,25,25,25,25,25,25,25,25,25,25,25,
25,25,25,25,25,25,25,25,25,25,25,25,25,25,25,25
</data>
 </layer>
 <layer id="2" name="UNPLACEABLE" width="16" height="16">
  <data encoding="csv">
0,0,0,0,0,0,0,0,0,0,0,0,103,104,105,99,
0,99,99,99,99,99,99,99,99,99,99,0,0,94,99,99,
0,99,99,99,99,99,99,99,99,99,99,99,0,179,99,99,
0,99,99,0,0,0,0,0,0,0,0,0,0,179,99,99,
0,99,0,0,94,94,225,225,94,94,94,94,0,179,99,99,
0,99,0,0,179,0,0,0,0,0,0,179,0,94,99,99,
0,0,0,0,179,0,94,94,94,94,0,179,0,94,99,99,
0,0,0,0,94,94,94,142,143,94,0,94,0,94,99,99,
81,0,0,0,0,0,0,165,166,94,0,94,0,94,99,99,
104,94,94,94,94,0,20,94,94,94,0,179,0,94,99,99,
127,0,0,0,94,0,0,0,0,0,0,179,0,94,99,99,
0,0,99,0,94,225,225,94,94,94,94,94,0,94,99,99,
0,99,99,0,0,0,0,0,0,0,0,0,0,179,99,99,
0,99,99,99,99,99,99,0,0,0,0,0,0,179,99,99,
0,99,99,99,99,99,99,99,99,99,99,99,0,179,99,99,
0,0,0,0,0,0,0,0,0,0,0,0,0,94,99,99
</data>
 </layer>
 <objectgroup id="3" name="path">
  <object id="1" x="112" y="144">
   <polyline points="0,0 32,0 32,-48 -16,-48 -16,-32 -48,-32 -48,-80 64,-80 64,32 -48,32 -48,0 -96,0"/>
  </object>
  <object id="2" x="208" y="240">
   <polyline points="0,0 0,-224"/>
  </object>
 </objectgroup>
 <objectgroup id="4" name="tunnel">
  <object id="3" x="208" y="224">
   <polyline points="0,0 0,-32"/>
  </object>
  <object id="4" x="208" y="64">
   <polyline points="0,0 0,-32"/>
  </object>
  <object id="5" x="176" y="80">
   <polyline points="0,0 0,16"/>
  </object>
  <object id="7" x="64" y="96">
   <polyline points="0,0 0,-16"/>
  </object>
  <object id="8" x="96" y="176">
   <polyline points="0,0 -16,0"/>
  </object>
  <object id="10" x="96" y="64">
   <polyline points="0,0 16,0"/>
  </object>
  <object id="11" x="176" y="144">
   <polyline points="0,0 0,16"/>
  </object>
 </objectgroup>
</map>
