<?xml version="1.0" encoding="UTF-8"?>
<map version="1.10" tiledversion="1.12.2" orientation="orthogonal" renderorder="right-down" width="16" height="16" tilewidth="32" tileheight="32" infinite="0" nextlayerid="4" nextobjectid="5">
 <editorsettings>
  <export target="level.tmj" format="json"/>
 </editorsettings>
 <tileset firstgid="1" source="32x32.tsx"/>
 <layer id="1" name="Map" width="16" height="16">
  <data encoding="csv">
25,25,25,25,25,25,25,25,25,25,25,26,24,25,25,25,
25,25,25,25,25,25,25,25,25,25,25,26,24,25,25,25,
25,25,25,25,25,25,25,25,25,25,25,26,24,25,25,25,
25,25,25,25,25,25,25,25,25,25,25,26,24,25,25,25,
25,25,4,48,48,48,48,48,48,48,48,49,24,25,25,25,
25,25,26,1,2,2,2,2,2,2,2,2,28,25,25,25,
25,25,26,24,25,25,25,25,25,25,25,25,25,25,25,25,
25,25,26,24,25,25,25,25,25,25,25,25,25,25,25,25,
25,25,26,24,25,25,25,25,25,25,25,25,25,25,25,25,
25,25,26,47,48,48,48,48,48,48,48,48,5,25,25,25,
25,25,27,2,2,2,2,2,2,2,2,3,24,25,25,25,
25,25,25,25,25,25,25,25,25,25,25,26,24,25,25,25,
25,25,25,25,25,25,25,25,25,25,25,26,24,25,25,25,
25,25,25,25,25,25,25,25,25,25,25,26,24,25,25,25,
25,25,25,25,25,25,25,25,25,25,25,26,24,25,25,25,
25,25,25,25,25,25,25,25,25,25,25,26,24,25,25,25
</data>
 </layer>
 <objectgroup color="#ffff00" id="3" name="waypoints" locked="1">
  <object id="4" x="384" y="0">
   <polyline points="0,0 0,160 -288,160 -288,320 0,320 0,512"/>
  </object>
 </objectgroup>
</map>
