<?xml version="1.0" encoding="UTF-8"?>
<map version="1.10" tiledversion="1.12.2" orientation="orthogonal" renderorder="right-down" width="16" height="16" tilewidth="16" tileheight="16" infinite="0" nextlayerid="5" nextobjectid="10">
 <editorsettings>
  <export target="../TMJs/round12.tmj" format="json"/>
 </editorsettings>
 <tileset firstgid="1" source="../16x16.tsx"/>
 <layer id="1" name="BASE" width="16" height="16">
  <data encoding="csv">
25,25,25,25,25,25,25,25,25,25,25,25,25,25,25,25,
25,25,25,25,25,25,25,25,25,25,25,25,25,25,25,25,
25,25,25,25,25,25,25,25,25,25,25,25,25,25,25,25,
25,25,25,25,25,25,25,25,25,25,25,25,25,25,25,25,
25,25,25,25,25,25,25,25,25,25,25,25,25,25,25,25,
25,25,25,25,25,25,25,25,25,25,25,25,25,25,25,25,
25,25,25,25,25,25,25,25,25,25,25,25,25,25,25,25,
25,25,25,25,25,25,25,25,25,25,25,25,25,25,25,25,
25,25,25,25,25,25,25,25,25,25,25,25,25,25,25,25,
25,25,25,25,25,25,25,25,25,25,25,25,25,25,25,25,
25,25,25,25,25,25,25,25,25,25,25,25,25,25,25,25,
25,25,25,25,25,25,25,25,25,25,25,25,25,25,25,25,
25,25,25,25,25,25,25,25,25,25,25,25,25,25,25,25,
25,25,25,25,25,25,25,25,25,25,25,25,25,25,25,25,
25,25,25,25,25,25,25,25,25,25,25,25,25,25,25,25,
25,25,25,25,25,25,25,25,25,25,25,25,25,25,25,25
</data>
 </layer>
 <layer id="2" name="UNPLACEABLE" width="16" height="16">
  <data encoding="csv">
94,30,30,30,30,30,30,30,30,30,30,30,30,30,30,30,
94,30,30,30,30,30,30,30,30,30,30,30,30,30,30,30,
94,30,30,30,30,30,30,30,30,30,30,30,30,30,30,30,
104,105,30,30,30,30,30,30,30,30,30,30,30,30,30,30,
127,128,30,30,30,30,30,30,30,30,0,0,30,30,30,30,
30,30,30,0,30,30,30,30,30,0,0,0,0,0,0,99,
30,30,0,0,0,99,99,30,0,0,0,225,225,225,0,0,
30,0,0,0,30,99,99,142,143,80,81,94,0,94,94,0,
30,0,0,30,99,99,99,165,166,103,104,94,0,0,179,0,
99,99,99,99,99,99,99,30,30,126,127,0,0,0,179,0,
99,225,225,94,94,94,94,94,94,94,225,225,225,94,94,99,
0,94,0,0,0,0,0,0,0,0,0,0,0,0,99,99,
0,94,94,94,225,225,225,94,94,94,94,94,94,94,94,99,
0,0,0,0,0,0,0,0,0,0,0,0,0,0,94,0,
94,94,94,94,94,94,94,94,225,225,225,94,94,94,94,0,
0,0,0,0,0,0,0,0,0,0,0,0,0,0,0,0
</data>
 </layer>
 <objectgroup id="3" name="path">
  <object id="1" x="0" y="0">
   <polyline points="0,0 0,32"/>
  </object>
  <object id="3" x="0" y="224">
   <polyline points="0,0 224,0 224,-32 16,-32 16,-64 224,-64 224,-112 208,-112 208,-128 176,-128 176,-96"/>
  </object>
 </objectgroup>
 <objectgroup id="4" name="tunnel">
  <object id="4" x="128" y="224">
   <polyline points="0,0 32,0"/>
  </object>
  <object id="5" x="96" y="192">
   <polyline points="0,0 -32,0"/>
  </object>
  <object id="6" x="16" y="160">
   <polyline points="0,0 16,0"/>
  </object>
  <object id="7" x="160" y="160">
   <polyline points="0,0 16,0 32,0"/>
  </object>
  <object id="8" x="224" y="144">
   <polyline points="0,0 0,-16"/>
  </object>
  <object id="9" x="208" y="96">
   <polyline points="0,0 -32,0"/>
  </object>
 </objectgroup>
</map>
