<?xml version="1.0" encoding="UTF-8"?>
<map version="1.10" tiledversion="1.12.2" orientation="orthogonal" renderorder="right-down" width="16" height="16" tilewidth="16" tileheight="16" infinite="0" nextlayerid="5" nextobjectid="8">
 <editorsettings>
  <export target="../TMJs/round13.tmj" format="json"/>
 </editorsettings>
 <tileset firstgid="1" source="../16x16.tsx"/>
 <layer id="1" name="BASE" width="16" height="16">
  <data encoding="csv">
25,25,25,25,25,25,25,25,25,25,25,25,25,25,25,25,
25,25,25,25,25,25,25,25,25,25,25,25,25,25,25,25,
25,25,25,25,25,25,25,25,25,25,25,25,25,25,25,25,
25,25,25,25,25,25,25,25,25,25,25,25,25,25,25,25,
25,25,25,25,25,25,25,25,25,25,25,25,25,25,25,25,
25,25,25,25,25,25,25,25,25,25,25,25,25,25,25,25,
25,25,25,25,25,25,25,25,25,25,25,25,25,25,25,25,
25,25,25,25,25,25,25,25,25,25,25,25,25,25,25,25,
25,25,25,25,25,25,25,25,25,25,25,25,25,25,25,25,
25,25,25,25,25,25,25,25,25,25,25,25,25,25,25,25,
25,25,25,25,25,25,25,25,25,25,25,25,25,25,25,25,
25,25,25,25,25,25,25,25,25,25,25,25,25,25,25,25,
25,25,25,25,25,25,25,25,25,25,25,25,25,25,25,25,
25,25,25,25,25,25,25,25,25,25,25,25,25,25,25,25,
25,25,25,25,25,25,25,25,25,25,25,25,25,25,25,25,
25,25,25,25,25,25,25,25,25,25,25,25,25,25,25,25
</data>
 </layer>
 <layer id="2" name="UNPLACEABLE" width="16" height="16">
  <data encoding="csv">
81,94,0,0,0,0,0,0,0,0,0,0,0,30,0,0,
104,94,94,225,225,94,94,94,94,94,0,0,0,30,0,0,
127,94,0,0,0,0,0,0,0,94,0,0,0,30,30,30,
0,179,0,30,30,30,0,0,0,94,0,0,0,0,0,0,
0,179,0,30,0,0,0,0,0,94,0,0,0,0,0,0,
0,94,0,30,0,94,94,94,94,94,94,94,94,94,94,0,
0,94,0,0,0,94,0,0,0,0,94,0,0,0,94,0,
0,94,0,0,0,94,0,142,143,0,94,0,0,0,94,0,
0,94,0,0,0,94,0,165,166,0,94,0,0,0,94,0,
0,94,0,0,0,94,0,0,0,0,94,0,0,0,94,0,
0,94,94,94,94,94,94,94,94,94,94,0,30,0,94,0,
0,0,0,0,0,0,94,0,0,0,0,0,30,0,179,0,
0,0,0,0,0,0,94,0,0,0,30,30,30,0,179,0,
30,30,30,0,0,0,94,0,0,0,0,0,0,0,94,81,
0,0,30,0,0,0,94,94,94,94,94,225,225,94,94,104,
0,0,30,0,0,0,0,0,0,0,0,0,0,0,94,127
</data>
 </layer>
 <objectgroup id="3" name="path">
  <object id="2" x="16" y="0">
   <polyline points="0,0 0,160 144,160 144,80 64,80 64,160 80,160 80,224 208,224"/>
  </object>
  <object id="3" x="224" y="240">
   <polyline points="0,0 0,-160 -144,-160 -144,-80 -64,-80 -64,-160 -80,-160 -80,-224 -208,-224"/>
  </object>
 </objectgroup>
 <objectgroup id="4" name="tunnel">
  <object id="4" x="224" y="192">
   <polyline points="0,0 0,-16"/>
  </object>
  <object id="5" x="64" y="16">
   <polyline points="0,0 -16,0"/>
  </object>
  <object id="6" x="16" y="48">
   <polyline points="0,0 0,16"/>
  </object>
  <object id="7" x="176" y="224">
   <polyline points="0,0 16,0"/>
  </object>
 </objectgroup>
</map>
