<?xml version="1.0" encoding="UTF-8"?>
<map version="1.10" tiledversion="1.12.2" orientation="orthogonal" renderorder="right-down" width="16" height="16" tilewidth="16" tileheight="16" infinite="0" nextlayerid="5" nextobjectid="10">
 <editorsettings>
  <export target="../TMJs/round3.tmj" format="json"/>
 </editorsettings>
 <tileset firstgid="1" source="../16x16.tsx"/>
 <layer id="1" name="BASE" width="16" height="16">
  <data encoding="csv">
25,25,25,25,25,25,25,25,25,25,25,25,25,25,25,25,
25,25,25,25,25,25,25,25,25,25,25,25,25,25,25,25,
25,25,25,25,25,25,25,25,25,25,25,25,25,25,25,25,
25,25,25,25,25,25,25,25,25,25,25,25,25,25,25,25,
25,25,25,25,25,25,25,25,25,25,25,25,25,25,25,25,
25,25,25,25,25,25,25,25,25,25,25,25,25,25,25,25,
25,25,25,25,25,25,25,25,25,25,25,25,25,25,25,25,
25,25,25,25,25,25,25,25,25,25,25,25,25,25,25,25,
25,25,25,25,25,25,25,25,25,25,25,25,25,25,25,25,
25,25,25,25,25,25,25,25,25,25,25,25,25,25,25,25,
25,25,25,25,25,25,25,25,25,25,25,25,25,25,25,25,
25,25,25,25,25,25,25,25,25,25,25,25,25,25,25,25,
25,25,25,25,25,25,25,25,25,25,25,25,25,25,25,25,
25,25,25,25,25,25,25,25,25,25,25,25,25,25,25,25,
25,25,25,25,25,25,25,25,25,25,25,25,25,25,25,25,
25,25,25,25,25,25,25,25,25,25,25,25,25,25,25,25
</data>
 </layer>
 <layer id="2" name="UNPLACEABLE" width="16" height="16">
  <data encoding="csv">
0,103,104,105,0,0,0,0,0,0,242,242,242,242,242,242,
0,0,94,0,0,0,0,0,0,0,0,0,242,242,242,242,
0,0,94,0,0,0,0,0,0,0,0,0,0,0,242,242,
0,0,94,0,0,0,0,0,0,0,0,0,0,0,0,242,
0,0,179,0,0,94,225,225,225,225,94,0,0,0,0,242,
0,0,179,0,0,94,0,0,0,0,94,0,0,0,0,0,
0,0,179,0,0,94,0,0,0,0,94,0,0,0,0,0,
0,0,94,0,0,94,0,142,143,0,94,0,0,0,0,0,
0,0,94,0,0,94,0,165,166,0,94,0,0,0,0,0,
0,0,94,94,94,94,0,0,0,0,94,94,94,94,0,0,
0,0,0,0,0,0,0,0,0,0,0,0,0,94,0,0,
0,0,0,0,0,0,0,0,0,0,0,0,0,179,0,0,
0,0,0,0,0,0,0,0,0,0,0,0,0,179,0,0,
0,0,242,242,0,0,0,0,0,0,0,0,0,179,0,0,
0,242,242,242,242,242,242,0,0,0,0,0,0,94,0,0,
242,242,242,242,242,242,242,242,242,242,0,0,0,94,0,0
</data>
 </layer>
 <objectgroup id="3" name="path">
  <object id="2" x="208" y="240">
   <polyline points="0,0 0,-96 -48,-96 -48,-176 -128,-176 -128,-96 -176,-96 -176,-224"/>
  </object>
 </objectgroup>
 <objectgroup id="4" name="tunnel">
  <object id="7" x="208" y="208">
   <polyline points="0,0 0,-32"/>
  </object>
  <object id="8" x="144" y="64">
   <polyline points="0,0 -48,0"/>
  </object>
  <object id="9" x="32" y="96">
   <polyline points="0,0 0,-32"/>
  </object>
 </objectgroup>
</map>
