<?xml version="1.0" encoding="UTF-8"?>
<map version="1.10" tiledversion="1.12.2" orientation="orthogonal" renderorder="right-down" width="16" height="16" tilewidth="16" tileheight="16" infinite="0" nextlayerid="5" nextobjectid="6">
 <tileset firstgid="1" source="../16x16.tsx"/>
 <layer id="1" name="BASE" width="16" height="16">
  <data encoding="csv">
25,25,25,25,25,25,25,25,25,25,25,25,25,25,25,25,
25,25,25,25,25,25,25,25,25,25,25,25,25,25,25,25,
25,25,25,25,25,25,25,25,25,25,25,25,25,25,25,25,
25,25,25,25,25,25,25,25,25,25,25,25,25,25,25,25,
25,25,25,25,25,25,25,25,25,25,25,25,25,25,25,25,
25,25,25,25,25,25,25,25,25,25,25,25,25,25,25,25,
25,25,25,25,25,25,25,25,25,25,25,25,25,25,25,25,
25,25,25,25,25,25,25,25,25,25,25,25,25,25,25,25,
25,25,25,25,25,25,25,25,25,25,25,25,25,25,25,25,
25,25,25,25,25,25,25,25,25,25,25,25,25,25,25,25,
25,25,25,25,25,25,25,25,25,25,25,25,25,25,25,25,
25,25,25,25,25,25,25,25,25,25,25,25,25,25,25,25,
25,25,25,25,25,25,25,25,25,25,25,25,25,25,25,25,
25,25,25,25,25,25,25,25,25,25,25,25,25,25,25,25,
25,25,25,25,25,25,25,25,25,25,25,25,25,25,25,25,
25,25,25,25,25,25,25,25,25,25,25,25,25,25,25,25
</data>
 </layer>
 <layer id="2" name="UNPLACEABLE" width="16" height="16">
  <data encoding="csv">
30,30,30,30,30,0,0,0,0,0,0,0,0,0,0,0,
30,30,0,0,0,0,0,0,0,0,0,0,0,0,0,0,
0,0,0,0,0,0,0,0,0,94,94,94,94,94,94,94,
81,0,0,0,94,94,94,94,94,94,0,0,0,0,0,0,
104,94,94,94,94,0,0,0,0,0,0,0,0,0,0,30,
127,0,0,0,0,0,0,0,0,0,0,0,0,0,30,30,
0,0,0,0,0,0,0,0,0,0,0,0,0,30,30,30,
0,0,0,0,0,0,0,142,143,0,0,0,0,30,30,30,
0,0,0,0,0,0,0,165,166,0,0,0,0,0,30,30,
0,0,0,0,0,0,0,0,0,0,0,0,0,0,30,30,
0,0,0,0,0,0,0,0,0,0,0,0,0,0,0,30,
94,94,94,94,94,94,94,94,94,94,94,94,0,0,0,30,
0,0,0,0,0,0,0,0,0,0,0,94,0,0,0,30,
81,0,0,0,0,0,0,0,0,0,0,94,0,0,0,30,
104,94,94,94,94,94,94,94,94,94,94,94,0,0,0,30,
127,0,0,0,0,0,0,0,0,0,0,0,0,0,0,30
</data>
 </layer>
 <objectgroup id="3" name="path">
  <object id="4" x="240" y="32">
   <polyline points="0,0 -96,0 -96,16 -176,16 -176,32 -224,32"/>
  </object>
  <object id="5" x="0" y="176">
   <polyline points="0,0 176,0 176,48 16,48"/>
  </object>
 </objectgroup>
 <objectgroup id="4" name="tunnel"/>
</map>
