<?xml version="1.0" encoding="UTF-8"?>
<map version="1.10" tiledversion="1.12.2" orientation="orthogonal" renderorder="right-down" width="16" height="16" tilewidth="16" tileheight="16" infinite="0" nextlayerid="5" nextobjectid="13">
 <editorsettings>
  <export target="../TMJs/round6.tmj" format="json"/>
 </editorsettings>
 <tileset firstgid="1" source="../16x16.tsx"/>
 <layer id="1" name="BASE" width="16" height="16">
  <data encoding="csv">
25,25,25,25,25,25,25,25,25,25,25,25,25,25,25,25,
25,25,25,25,25,25,25,25,25,25,25,25,25,25,25,25,
25,25,25,25,25,25,25,25,25,25,25,25,25,25,25,25,
25,25,25,25,25,25,25,25,25,25,25,25,25,25,25,25,
25,25,25,25,25,25,25,25,25,25,25,25,25,25,25,25,
25,25,25,25,25,25,25,25,25,25,25,25,25,25,25,25,
25,25,25,25,25,25,25,25,25,25,25,25,25,25,25,25,
25,25,25,25,25,25,25,25,25,25,25,25,25,25,25,25,
25,25,25,25,25,25,25,25,25,25,25,25,25,25,25,25,
25,25,25,25,25,25,25,25,25,25,25,25,25,25,25,25,
25,25,25,25,25,25,25,25,25,25,25,25,25,25,25,25,
25,25,25,25,25,25,25,25,25,25,25,25,25,25,25,25,
25,25,25,25,25,25,25,25,25,25,25,25,25,25,25,25,
25,25,25,25,25,25,25,25,25,25,25,25,25,25,25,25,
25,25,25,25,25,25,25,25,25,25,25,25,25,25,25,25,
25,25,25,25,25,25,25,25,25,25,25,25,25,25,25,25
</data>
 </layer>
 <layer id="2" name="UNPLACEABLE" width="16" height="16">
  <data encoding="csv">
168,168,168,168,168,225,225,225,94,168,168,168,168,168,168,168,
168,99,99,99,99,99,99,99,99,99,99,99,99,99,99,168,
168,99,168,168,168,168,168,168,168,168,225,225,225,168,99,168,
168,99,168,99,99,99,99,99,99,99,99,99,99,168,99,168,
168,99,168,99,168,168,168,168,168,168,168,168,99,168,99,168,
179,99,168,99,179,99,99,99,99,99,99,168,99,168,99,168,
179,99,168,99,179,99,99,99,99,99,99,168,99,168,99,168,
179,99,168,99,168,99,99,142,143,99,99,168,99,179,99,168,
168,99,168,99,168,99,99,165,166,99,99,179,99,179,99,168,
168,99,179,99,168,99,99,99,99,99,99,179,99,179,99,168,
168,99,179,99,168,80,81,99,99,99,99,168,99,179,99,168,
168,99,168,99,168,103,104,168,168,168,168,168,99,179,99,168,
179,99,168,99,168,126,127,99,99,99,99,99,99,168,99,168,
179,99,168,99,168,168,168,225,225,168,168,168,168,168,99,168,
179,99,168,99,99,99,99,99,99,99,99,99,99,99,99,168,
168,99,168,225,225,168,168,168,168,168,225,225,168,168,168,168
</data>
 </layer>
 <objectgroup id="3" name="path">
  <object id="1" x="0" y="240">
   <polyline points="0,0 0,-240 240,-240 240,0 32,0 32,-208 208,-208 208,-32 64,-32 64,-176 176,-176 176,-64 112,-64"/>
  </object>
 </objectgroup>
 <objectgroup id="4" name="tunnel">
  <object id="2" x="0" y="224">
   <polyline points="0,0 0,-32"/>
  </object>
  <object id="3" x="0" y="112">
   <polyline points="0,0 0,-32"/>
  </object>
  <object id="4" x="80" y="0">
   <polyline points="0,0 32,0"/>
  </object>
  <object id="5" x="176" y="240">
   <polyline points="0,0 -16,0"/>
  </object>
  <object id="6" x="64" y="240">
   <polyline points="0,0 -16,0"/>
  </object>
  <object id="7" x="32" y="160">
   <polyline points="0,0 0,-16"/>
  </object>
  <object id="8" x="160" y="32">
   <polyline points="0,0 32,0"/>
  </object>
  <object id="9" x="208" y="112">
   <polyline points="0,0 0,64"/>
  </object>
  <object id="10" x="128" y="208">
   <polyline points="0,0 -16,0"/>
  </object>
  <object id="11" x="64" y="96">
   <polyline points="0,0 0,-16"/>
  </object>
  <object id="12" x="176" y="128">
   <polyline points="0,0 0,16"/>
  </object>
 </objectgroup>
</map>
