<?xml version="1.0" encoding="UTF-8"?>
<map version="1.10" tiledversion="1.12.2" orientation="orthogonal" renderorder="right-down" width="16" height="16" tilewidth="32" tileheight="32" infinite="0" nextlayerid="5" nextobjectid="5">
 <editorsettings>
  <export target="level.tmj" format="json"/>
 </editorsettings>
 <tileset firstgid="1" source="32x32.tsx"/>
 <tileset firstgid="50" source="32x32.tsx"/>
 <layer id="1" name="Map" width="16" height="16">
  <data encoding="csv">
74,74,74,74,74,74,74,74,74,74,74,75,73,74,74,74,
74,74,74,74,74,74,74,74,74,74,74,75,73,74,74,74,
74,74,74,74,74,74,74,74,74,74,74,75,73,74,74,74,
74,74,74,74,74,74,74,74,74,74,74,75,73,74,74,74,
74,74,53,97,97,97,97,97,97,97,97,98,73,74,74,74,
74,74,75,50,51,51,51,51,51,51,51,51,77,74,74,74,
74,74,75,73,74,74,74,74,74,74,74,74,74,74,74,74,
74,74,75,73,74,74,74,74,74,74,74,74,74,74,74,74,
74,74,75,73,74,74,74,74,74,74,74,74,74,74,74,74,
74,74,75,96,97,97,97,97,97,97,97,97,54,74,74,74,
74,74,76,51,51,51,51,51,51,51,51,52,73,74,74,74,
74,74,74,74,74,74,74,74,74,74,74,75,73,74,74,74,
74,74,74,74,74,74,74,74,74,74,74,75,73,74,74,74,
74,74,74,74,74,74,74,74,74,74,74,75,73,74,74,74,
74,74,74,74,74,74,74,74,74,74,74,75,73,74,74,74,
74,74,74,74,74,74,74,74,74,74,74,75,73,74,74,74
</data>
 </layer>
 <objectgroup id="4" name="Object Layer 1"/>
</map>
